static/images/heji.svg

<svg width="30" height="30" viewBox="0 0 30 30" fill="none" xmlns="http://www.w3.org/2000/svg">
<path fill-rule="evenodd" clip-rule="evenodd" d="M6.7831 8.63184C6.19147 9.56153 5.84874 10.6651 5.84874 11.8487V18.1513C5.84874 21.465 8.53503 24.1513 11.8487 24.1513H18.1513C19.3349 24.1513 20.4385 23.8085 21.3682 23.2169C20.3034 24.89 18.4326 26 16.3025 26H10C6.68629 26 4 23.3137 4 20V13.6975C4 11.5674 5.10999 9.69656 6.7831 8.63184Z" fill="white"/>
<path fill-rule="evenodd" clip-rule="evenodd" d="M13.3809 4C10.3433 4 7.88086 6.46243 7.88086 9.5V16.8025C7.88086 19.8401 10.3433 22.3025 13.3809 22.3025H20.6834C23.721 22.3025 26.1834 19.8401 26.1834 16.8025V9.5C26.1834 6.46243 23.721 4 20.6834 4H13.3809ZM20.2915 14.0173C20.9582 13.6324 20.9582 12.6702 20.2915 12.2853L15.6045 9.57918C14.9378 9.19428 14.1045 9.6754 14.1045 10.4452L14.1045 15.8574C14.1045 16.6272 14.9378 17.1083 15.6045 16.7234L20.2915 14.0173Z" fill="white"/>
</svg>

<svg xmlns="http://www.w3.org/2000/svg" width="30" height="30" fill="none"><path fill="#fff" fill-rule="evenodd" d="M6.783 8.632a5.972 5.972 0 0 0-.934 3.217v6.302a6 6 0 0 0 6 6h6.302a5.972 5.972 0 0 0 3.217-.934A5.996 5.996 0 0 1 16.302 26H10a6 6 0 0 1-6-6v-6.303c0-2.13 1.11-4 2.783-5.065Z" clip-rule="evenodd"/><path fill="#fff" fill-rule="evenodd" d="M13.38 4a5.5 5.5 0 0 0-5.5 5.5v7.302a5.5 5.5 0 0 0 5.5 5.5h7.303a5.5 5.5 0 0 0 5.5-5.5V9.5a5.5 5.5 0 0 0-5.5-5.5h-7.302Zm6.911 10.017a1 1 0 0 0 0-1.732L15.604 9.58a1 1 0 0 0-1.5.866v5.412a1 1 0 0 0 1.5.866l4.688-2.706Z" clip-rule="evenodd"/></svg>
